public/images/icons/re-badges/badge-united.svg

<svg width="66" height="54" viewBox="0 0 66 54" fill="none" xmlns="http://www.w3.org/2000/svg">
<g id="Group 2594">
<g id="Vector">
<path d="M53.64 26.6C53.64 37.6457 44.4618 46.6 33.14 46.6C21.8182 46.6 12.64 37.6457 12.64 26.6C12.64 15.5543 21.8182 6.6 33.14 6.6C44.4618 6.6 53.64 15.5543 53.64 26.6Z" fill="white"/>
<path fill-rule="evenodd" clip-rule="evenodd" d="M55.28 26.6C55.28 38.5294 45.3676 48.2 33.14 48.2C20.9124 48.2 11 38.5294 11 26.6C11 14.6706 20.9124 5 33.14 5C45.3676 5 55.28 14.6706 55.28 26.6ZM33.14 46.6C44.4618 46.6 53.64 37.6457 53.64 26.6C53.64 15.5543 44.4618 6.6 33.14 6.6C21.8182 6.6 12.64 15.5543 12.64 26.6C12.64 37.6457 21.8182 46.6 33.14 46.6Z" fill="#3F4951"/>
<path fill-rule="evenodd" clip-rule="evenodd" d="M43.7446 19.9272C44.1098 20.2119 44.1576 20.7363 43.8496 21.0794L31.3659 34.9835C31.0624 35.3216 30.5331 35.3494 30.194 35.0452L22.497 28.1399C22.1528 27.8311 22.1426 27.3043 22.4747 26.983L24.6156 24.9116C24.9267 24.6106 25.4255 24.6014 25.748 24.8908L29.8179 28.542C30.1569 28.8462 30.6862 28.8183 30.9897 28.4802L40.2422 18.1751C40.531 17.8533 41.0282 17.8102 41.3708 18.0772L43.7446 19.9272Z" fill="#CBE1FF"/>
<path fill-rule="evenodd" clip-rule="evenodd" d="M21.6085 26.131L23.7495 24.0596C24.5273 23.307 25.7742 23.284 26.5806 24.0075L30.3413 27.3813L39.3169 17.3844C40.0391 16.58 41.2821 16.4722 42.1385 17.1396L44.5123 18.9896C45.4254 19.7012 45.5449 21.0124 44.7749 21.8701L32.2911 35.7742C31.5324 36.6193 30.2091 36.689 29.3615 35.9286L21.6645 29.0232C20.8038 28.2511 20.7784 26.9342 21.6085 26.131ZM43.8496 21.0794C44.1576 20.7363 44.1098 20.2119 43.7446 19.9272L41.3708 18.0772C41.0282 17.8102 40.531 17.8533 40.2422 18.1751L30.9897 28.4802C30.6862 28.8183 30.1569 28.8462 29.8179 28.542L25.748 24.8908C25.4255 24.6014 24.9267 24.6106 24.6156 24.9116L22.4747 26.983C22.1426 27.3043 22.1528 27.8311 22.497 28.1399L30.194 35.0452C30.5331 35.3494 31.0624 35.3216 31.3659 34.9835L43.8496 21.0794Z" fill="#3F4951"/>
</g>
</g>
</svg>

<svg fill="none" viewBox="0 0 66 54"><path fill="#fff" d="M53.64 26.6c0 11.046-9.178 20-20.5 20s-20.5-8.954-20.5-20 9.178-20 20.5-20 20.5 8.954 20.5 20z"/><path fill="#3F4951" fill-rule="evenodd" d="M55.28 26.6c0 11.93-9.912 21.6-22.14 21.6S11 38.53 11 26.6C11 14.67 20.912 5 33.14 5s22.14 9.67 22.14 21.6zm-22.14 20c11.322 0 20.5-8.954 20.5-20s-9.178-20-20.5-20-20.5 8.954-20.5 20 9.178 20 20.5 20z" clip-rule="evenodd"/><path fill="#CBE1FF" fill-rule="evenodd" d="M43.745 19.927c.365.285.413.81.105 1.152L31.366 34.983a.834.834 0 01-1.172.062l-7.697-6.905a.787.787 0 01-.022-1.157l2.14-2.071a.835.835 0 011.133-.021l4.07 3.651a.834.834 0 001.172-.062l9.252-10.305a.834.834 0 011.129-.098l2.374 1.85z" clip-rule="evenodd"/><path fill="#3F4951" fill-rule="evenodd" d="M21.608 26.131l2.142-2.071a2.087 2.087 0 012.83-.052l3.761 3.373 8.976-9.997a2.086 2.086 0 012.822-.244l2.373 1.85a1.967 1.967 0 01.263 2.88L32.29 35.774a2.086 2.086 0 01-2.93.155l-7.697-6.906a1.967 1.967 0 01-.056-2.892zm22.242-5.052a.787.787 0 00-.105-1.152l-2.374-1.85a.834.834 0 00-1.129.098L30.99 28.48a.834.834 0 01-1.172.062l-4.07-3.651a.835.835 0 00-1.132.02l-2.141 2.072a.787.787 0 00.022 1.157l7.697 6.905a.834.834 0 001.172-.062L43.85 21.08z" clip-rule="evenodd"/></svg>
